X:1
T:G  Major Stephen Jenks, 1803
T:Isaac Watts, 1717 (Psalm 50, Last Part) 10 10. 10 10. 10 10.
T:Triumph
T:Transcribed from Jenks and Griswold, The American Compiler, 1803.
%%score [ 1 2 3 4 ]
L:1/8
Q:1/4=130
M:4/4
K:Gb
V:1 treble nm="Tr." snm="Tr."
V:2 treble nm="C." snm="C."
V:3 treble-8 nm="T." snm="T."
V:4 bass nm="B." snm="B."
V:1
"^1.  Be–hold, the Judge  de–scends, his guards are nigh;  Tempest and fire at–tend him down the  sky: Heav'n, earth, and hell, draw" d8 | %1
 d2 d2 d2 G2 | A2 A2 A2 GA | B6 G2 | B2 B2 B2 B2 | A2 d2 e2 ed | d8 | d4 d2 d2 | d4 B4 | %9
"^near; let all things come     To  hear  his   jus–tice,      and the  sin–ner's doom:    \"But  gather  first, _______________________________     But" c2 B2 G2 A2 | %10
 A6 G2 | B2 G2 A2 A2 | G2 G2 c2 A2 | B8 |: d4 B2 G2 | (A8 | B2 G2 d2 B2 | g4) B4 | %18
"^ga – ther first my  saints,\" the  Judge  com–mands,     \"Bring  them,  ye  angels,   from    their    dis –tant   lands.\"" d2 d2 d2 d2 | %19
 B2 G2 A2 A2 | A6 G2 | d2 d2 d2 d2 | B2 A2 G2 A2 | B8 :| %24
V:2
 D8 | G2 G2 G2 BG | F2 F2 F2 BA | B6 d2 | B2 B2 B2 G2 | E2 D2 E2 FG | F8 | D4 G2 G2 | B4 G4 | %9
 A2 B2 B2 A2 | A6 d2 | B2 GF E2 A2 | D2 D2 E2 F2 | G8 |: z8 | z8 | %16
"^\"But     gather   first,  But" D4 D2 D2 | G4 G4 | B2 B2 B2 B2 | G2 GF E2 EG | F6 G2 | %21
 B2 B2 B2 B2 | BG cA G2 F2 | G8 :| %24
V:3
"^1.  Be–hold, the Judge  de–scends, his guards are nigh;  Tempest and fire at–tend him down the  sky: Heav'n, earth, and hell, draw" G8 | %1
 B2 B2 B2 G2 | d2 d2 d2 ef | g6 B2 | e2 e2 e2 d2 | c2 B2 c2 BG | A8 | G4 B2 B2 | d4 d4 | %9
"^near; let all things come     To  hear  his   jus–tice,      and the  sin–ner's doom:    \"But  gather  first, _____________                               But" e2 d2 g2 af | %10
 d6 B2 | g2 d2 e2 ce | d2 Bd c2 A2 | G8 |: G4 B2 c2 | d8- | d4 z4 | z4 d4 | %18
"^ga – ther first my  saints,\" the  Judge  com–mands,     \"Bring  them,  ye  angels,   from    their    dis –tant   lands.\"" g2 d2 B2 G2 | %19
 B2 d2 e2 c2 | d6 d2 | g2 g2 g2 d2 | cd ec B2 A2 | G8 :| %24
V:4
 G,8 | G,2 G,2 G,2 E,2 | D,2 D,2 D,2 G,F, | G,6 G,2 | E,2 E,2 E,2 G,2 | A,2 B,2 A,2 G,2 | D,8 | %7
 G,4 G,2 G,2 | G,4 B,4 | C2 B,2 G,2 A,2 | D,6 D,2 | G,2 B,2 A,2 A,2 | G,2 G,2 C,2 D,2 | G,,8 |: %14
 z8 |"^\"But  gather  first, _______________    But" D,4 D,2 D,2 | G,8- | G,4 G,4 | %18
 G,2 G,2 G,2 G,2 | E,2 B,2 A,2 A,2 | D,6 B,2 | G,2 G,2 G,2 G,2 | B,2 C2 D2 D,2 | G,8 :| %24

